X:80
T:RVW2/2/80 The Smuggler's Boy
C:John Denny, Billericay, Essex, 25 April 1904
L:1/4
Q:1/4=100
M:3/4
I:linebreak $
K:G
"^(Editorial suggestion  " G/G/ | F G A | B G B | c d e | d2 B/B/ |$ d c A | c B G/G/ | A c A | 
w: On one|cold clou- dy|mor- ning a-|lone I did|steer on the|wide rol- ling|o- cean where it|runs swift and|
G2 G | F G A |$ B G B | c d e | d2 B/B/ | d c A | c B G |$ A c A | (G B) ||"^Refrain" A | G A B | 
w: clear. I|heard some poor|crea- ture in|sor- row did|weep cry- ing|"O my poor|fa- ther got|lost in the|deep. _|Some|pi- ty I|
!fermata!G2 B | c d e |$ d2 B/B/ | d c A | c B G/G/ | A c F | G2 |] 
w: crave, O|give me em-|ploy, for a-|lone I must|wan- der," cried the|poor smug- gler's|boy.|



